X:1
T:Stev
T:Stev
T:Norsk Folkem.
T:Ukjent
C:Ukjent
%%score [ 1 2 3 4 ]
L:1/8
Q:1/4=84
M:3/4
K:C
V:1 treble-8 nm="T1"
V:2 treble-8 nm="T2"
V:3 bass nm="B1"
V:4 bass nm="B2"
V:1
"^Moderato" g/ g3/2 g/ | (fd) f e c3/2 B/ | G2 F E F3/2 G/ | B2 c d c3/2 B/ | G2 G3/2 g/ g3/2 g/ | %5
w: Og vi' du|væ- * re mi e- ja|Jen- te, saa ska' du|hol- de deg staut og|plen- te; og vi du|
 (fd) f e c3/2 B/ | G2 z E F G | B2 c d c3/2 B/ | G2 z E F G | B2 c d c3/2 B/ | !fermata!G2 z z/ |] %11
w: væ- * re mit e- je|Gull, saa ska' du|ti- ge, naar e' blir|full, saa ska du|ti- ge, naa e' blir|full.|
V:2
 B/ c3/2 e/ | (dB) B c A3/2 F/ | E2 D C D3/2 E/ | F2 G A F3/2 F/ | E2 G3/2 e/ d3/2 c/ | %5
w: Og vi' du|væ- * re mi e- ja|Jen- te, saa ska' du|hol- de deg staut og|plen- te; og vi du|
 c2 B c A3/2 F/ | E2 z C D E | F2 E A A3/2 ^F/ | G2 z C D E | =F2 E ^F A3/2 F/ | %10
w: væ- re mit e- je|Gull, saa ska' du|ti- ge, naar e' blir|full, saa ska du|ti- ge, naa e' blir|
 !fermata!G2 z z/ |] %11
w: full.|
V:3
 G,/ G,3/2 G,/ | G,2 D, E, F,3/2 D,/ | C,2 D, E, D,3/2 C,/ | D,2 E, F, D,3/2 D,/ | %4
w: Og vi' du|væ- re mi e- ja|Jen- te, saa ska' du|hol- de deg staut og|
 C,2 E,3/2 C/ B,3/2 G,/ | A,2 G, G, F,3/2 D,/ | C,2 z E, D, C, | G,2 G, ^F, F,3/2 D,/ | %8
w: plen- te; og vi du|væ- re mit e- je|Gull, saa ska' du|ti- ge, naar e' blir|
 B,,2 z E, D, C, | G,2 G, A, ^F,3/2 D,/ | !fermata!G,2 z z/ |] %11
w: full, saa ska du|ti- ge, naa e' blir|full.|
V:4
 G,/ E,3/2 C,/ | G,2 G,, C, F,,3/2 G,,/ | C,2 C, C, C,3/2 C,/ | G,,2 G,, F,, G,,3/2 G,,/ | %4
w: Og vi' du|væ- re mi e- ja|Jen- te, saa ska' du|hol- de deg staut og|
 C,2 C,3/2 C/ G,3/2 E,/ | D,2 G,, C, F,,3/2 G,,/ | C,2 z C, C, C, | D,2 E, D, D,3/2 D,/ | %8
w: plen- te; og vi du|væ- re mit e- je|Gull, saa ska' du|ti- ge, naar e' blir|
 G,,2 z C, C, C, | D,2 E, D, D,3/2 D,/ | !fermata!G,,2 z z/ |] %11
w: full, saa ska du|ti- ge, naa e' blir|full.|

